src/icons/svgs/24/arrow-right.svg

<svg width="24" height="24" viewBox="0 0 24 24" fill="none" xmlns="http://www.w3.org/2000/svg">
<path d="M2 11.9998C2 11.4477 2.45727 10.9993 3.02035 10.9993H17.4349L11.7955 5.72399C11.3865 5.34246 11.3719 4.70683 11.761 4.30972C12.1501 3.90995 12.7954 3.89561 13.2034 4.27585L20.6828 11.2763C20.8858 11.4623 21 11.7248 21 11.9998C21 12.2749 20.8858 12.5332 20.684 12.7249L13.2045 19.7254C12.7984 20.1041 12.1525 20.09 11.7615 19.6899C11.3724 19.2941 11.387 18.6586 11.7961 18.2757L17.4354 13.0003H2.98223C2.42072 12.9999 2 12.5499 2 11.9998Z" fill="black"/>
<path d="M2 11.9998C2 11.4477 2.45727 10.9993 3.02035 10.9993H17.4349L11.7955 5.72399C11.3865 5.34246 11.3719 4.70683 11.761 4.30972C12.1501 3.90995 12.7954 3.89561 13.2034 4.27584L20.6828 11.2763C20.8858 11.4623 21 11.7248 21 11.9998C21 12.2749 20.8858 12.5332 20.684 12.7249L13.2045 19.7254C12.7984 20.1041 12.1525 20.09 11.7615 19.6899C11.3724 19.2941 11.387 18.6586 11.7961 18.2757L17.4354 13.0003H2.98223C2.42072 12.9999 2 12.5499 2 11.9998Z" fill="black"/>
</svg>

<svg width="24" height="24" viewBox="0 0 24 24" xmlns="http://www.w3.org/2000/svg">
    <path d="M2 12c0-.552.457-1 1.02-1h14.415l-5.64-5.276a.985.985 0 0 1-.034-1.414c.39-.4 1.034-.414 1.442-.034l7.48 7A.98.98 0 0 1 21 12a.996.996 0 0 1-.316.725l-7.48 7a1.038 1.038 0 0 1-1.443-.035.985.985 0 0 1 .035-1.414L17.436 13H2.981A.981.981 0 0 1 2 12z"/>
    <path d="M2 12c0-.552.457-1 1.02-1h14.415l-5.64-5.276a.985.985 0 0 1-.034-1.414c.39-.4 1.034-.414 1.442-.034l7.48 7A.98.98 0 0 1 21 12a.996.996 0 0 1-.316.725l-7.48 7a1.038 1.038 0 0 1-1.443-.035.985.985 0 0 1 .035-1.414L17.436 13H2.981A.981.981 0 0 1 2 12z"/>
</svg>
